X: 5
T: Humours of Kesh, The
I: Humours of Kesh, The	J-53	G	jig	Set 15
M: 6/8
R: jig
K: G
"G"BGG Bcd| "C"ecG "D7"efg| "G"dcB "Em"gdB| "Am"A3 "D7"ABc|
"G"BGG Bcd| "C"ecc "D7"efg| "G"dcB "Em"gdB| "D7"cAF "G"G3:|
"G"gfg "Em"bag| "Am"fed "D7"^cde| "G"dcB "Em"gdB| "Am"A3 "D7"ABd|
"G"gfg bag| "D7"fed ^cde| "C"dcB "Am"gdB| "D7"cAF "G"G (3Bcd|
"G"gfg "Em"bag| "Am"fed "D7"^cde| "G"dcB "Em"gdB| "Am"A3 "D7"ABc|
"G"BdG Bcd| "C"e2c "Am"efg| "D7"dcB gdB| cAF "G"G3|]
%%text Roaring Jelly  J-53
%%text 08/29/98 

#include "LeftHeader.h"
% ---------- set 16 ----------
% St. Joseph (D) / Reel de Montréal (G) / You Married My Daughter... (G)
%%text Set 16
%%vskip -1cm
